src/dsmComponents/Icons/globe-24px.svg

<svg width="24" height="24" xmlns="http://www.w3.org/2000/svg" xmlns:xlink="http://www.w3.org/1999/xlink"><defs><path d="M12 0C5.383 0 0 5.383 0 12s5.383 12 12 12 12-5.383 12-12S18.617 0 12 0zm9.949 11h-3.476c-.138-3.21-.931-6.02-2.141-7.999 3.063 1.481 5.265 4.467 5.617 7.999zM11 2.3V11H7.525C7.734 6.531 9.315 3.26 11 2.3zM11 13v8.7c-1.685-.96-3.266-4.231-3.475-8.7H11zm2 8.7V13h3.475c-.209 4.469-1.79 7.74-3.475 8.7zM13 11V2.3c1.685.96 3.266 4.231 3.475 8.7H13zM7.667 3.001C6.458 4.98 5.664 7.79 5.526 11H2.051c.352-3.532 2.554-6.518 5.616-7.999zM2.051 13h3.476c.138 3.21.931 6.02 2.141 7.999C4.605 19.518 2.403 16.532 2.051 13zm14.282 7.999c1.209-1.979 2.003-4.789 2.141-7.999h3.476c-.353 3.532-2.555 6.518-5.617 7.999z" id="globe-24px_svg__a"/></defs><use fill="#737373" xlink:href="#globe-24px_svg__a" fill-rule="evenodd"/></svg>

<?xml version="1.0" encoding="UTF-8"?>
<svg width="24px" height="24px" viewBox="0 0 24 24" version="1.1" xmlns="http://www.w3.org/2000/svg" xmlns:xlink="http://www.w3.org/1999/xlink">
    <!-- Generator: Sketch 59.1 (86144) - https://sketch.com -->
    <title>globe-24px</title>
    <desc>Created with Sketch.</desc>
    <defs>
        <path d="M12,0 C5.383,0 0,5.383 0,12 C0,18.617 5.383,24 12,24 C18.617,24 24,18.617 24,12 C24,5.383 18.617,0 12,0 Z M21.949,11 L18.473,11 C18.335,7.79 17.542,4.98 16.332,3.001 C19.395,4.482 21.597,7.468 21.949,11 Z M11,2.3 L11,11 L7.525,11 C7.734,6.531 9.315,3.26 11,2.3 Z M11,13 L11,21.7 C9.315,20.74 7.734,17.469 7.525,13 L11,13 Z M13,21.7 L13,13 L16.475,13 C16.266,17.469 14.685,20.74 13,21.7 Z M13,11 L13,2.3 C14.685,3.26 16.266,6.531 16.475,11 L13,11 Z M7.667,3.001 C6.458,4.98 5.664,7.79 5.526,11 L2.051,11 C2.403,7.468 4.605,4.482 7.667,3.001 Z M2.051,13 L5.527,13 C5.665,16.21 6.458,19.02 7.668,20.999 C4.605,19.518 2.403,16.532 2.051,13 Z M16.333,20.999 C17.542,19.02 18.336,16.21 18.474,13 L21.95,13 C21.597,16.532 19.395,19.518 16.333,20.999 Z" id="path-1"></path>
    </defs>
    <g id="Final" stroke="none" stroke-width="1" fill="none" fill-rule="evenodd">
        <g id="All-Nucleo-Icons" transform="translate(-608.000000, -3484.000000)">
            <g id="Solo/Nucleo/24px/globe" transform="translate(608.000000, 3484.000000)">
                <g id="globe">
                    <g id="Colour/Default-Colour">
                        <mask id="mask-2" fill="white">
                            <use xlink:href="#path-1"></use>
                        </mask>
                        <use id="Mask" fill="#000000" fill-rule="nonzero" xlink:href="#path-1"></use>
                        <g id="colour/neutral/chia" mask="url(#mask-2)" fill="#737373">
                            <g transform="translate(-20.000000, -20.000000)" id="Colour">
                                <rect x="0" y="0" width="64" height="64"></rect>
                            </g>
                        </g>
                    </g>
                </g>
            </g>
        </g>
    </g>
</svg>
